X:2059 
T:O cra ta dooiney quoi dys neerns soylagh (Moore)
T:Oh what men who to that compare (approximate translation)
T:Let Christians all with one accord rejoice (suggested title)
C:Traditional carol
O:Isle of Man
Z:Clague collection
B:Kiaull Vannin #59
N:Given as untitled but refers to Carvalyn Gailckagh, Moore et al., p.87, so that title has been used.
M:4/4 
L:1/4 
K:D
A2 A/F/A|d2 AA|B/A/ G/F/ FE|D4 |A2 de|f2 d2|fd d/A/B|A4|
A2 de|f2 d2|fd d/A/ B|A4 |A2 A/F/ A|d2 AA|B/A/ G/F/ FE|D4|| 

